; generated by PrusaSlicer 2.6.1+MacOS-arm64 on 2023-10-11 at 19:41:36 UTC


;
;
; 

; external perimeters extrusion width = 0.45mm
; perimeters extrusion width = 0.45mm
; infill extrusion width = 0.45mm
; solid infill extrusion width = 0.45mm
; top infill extrusion width = 0.40mm
; first layer extrusion width = 0.42mm

M73 P0 R29
M73 Q0 S29
M201 X1000 Y1000 Z200 E5000 ; sets maximum accelerations, mm/sec^2
M203 X200 Y200 Z12 E120 ; sets maximum feedrates, mm / sec
M204 S1250 T1250 ; sets acceleration (S) and retract acceleration (R), mm/sec^2
M205 X8.00 Y8.00 Z0.40 E4.50 ; sets the jerk limits, mm/sec
M205 S0 T0 ; sets the minimum extruding and travel feed rate, mm/sec
;TYPE:Custom
M862.3 P "MK3S" ; printer model check
M862.1 P0.4 ; nozzle diameter check
M115 U3.13.0 ; tell printer latest fw version
G90 ; use absolute coordinates
M83 ; extruder relative mode
M104 S215 ; set extruder temp
M140 S60 ; set bed temp
M190 S60 ; wait for bed temp
M109 S215 ; wait for extruder temp
G28 W ; home all without mesh bed level
G80 ; mesh bed leveling

G1 Z0.2 F720
G1 Y-3 F1000 ; go outside print area
G92 E0
G1 X60 E9 F1000 ; intro line
G1 X100 E12.5 F1000 ; intro line

G92 E0
M221 S95

; Don't change E values below. Excessive value can damage the printer.
M907 E430 ; set extruder motor current
G21 ; set units to millimeters
G90 ; use absolute coordinates
M83 ; use relative distances for extrusion
M900 K0.05 ; Filament gcode LA 1.5
M900 K30 ; Filament gcode LA 1.0
M107
;LAYER_CHANGE
;Z:0.2
;HEIGHT:0.2
;BEFORE_LAYER_CHANGE
G92 E0.0
;0.2


G1 E-.8 F2100
G1 Z.4 F720
;AFTER_LAYER_CHANGE
;0.2
G1 X105.919 Y88.907 F10800
G1 Z.2 F720
G1 E.8 F2100
M204 S800
;TYPE:Skirt/Brim
;WIDTH:0.42
G1 F1200
G1 X108.907 Y85.919 E.13249
G1 X110.588 Y85.223 E.05705
G1 X139.412 Y85.223 E.90376
G1 X141.093 Y85.919 E.05705
G1 X144.081 Y88.907 E.13249
G1 X144.777 Y90.588 E.05705
G1 X144.777 Y119.412 E.90376
G1 X144.081 Y121.093 E.05705
G1 X141.093 Y124.081 E.13249
G1 X139.412 Y124.777 E.05705
G1 X110.588 Y124.777 E.90376
G1 X108.907 Y124.081 E.05705
G1 X105.919 Y121.093 E.13249
G1 X105.223 Y119.412 E.05705
G1 X105.223 Y90.588 E.90376
G1 X105.896 Y88.962 E.05518
M204 S1000
;WIPE_START
G1 F8640
G1 X108.333 Y86.499 E-.8
;WIPE_END
G1 Z.6 F720
G1 X108.409 Y90.575 F10800
G1 Z.2 F720
G1 E.8 F2100
M204 S800
G1 F1200
G1 X109.125 Y89.459 E.04157
G1 X109.701 Y88.926 E.02461
G1 X110.305 Y88.498 E.02321
G1 X112.254 Y87.886 E.06405
G1 X137.69 Y87.89 E.79753
G1 X138.71 Y88.084 E.03255
G1 X139.688 Y88.5 E.03332
G1 X140.812 Y89.396 E.04507
G1 X141.705 Y90.734 E.05044
G1 X142.113 Y92.279 E.0501
G1 X142.113 Y117.72 E.79768
G1 X141.733 Y119.205 E.04806
M73 P1 R29
M73 Q1 S29
G1 X140.875 Y120.541 E.04978
G1 X140.299 Y121.074 E.02461
G1 X139.696 Y121.502 E.02319
G1 X137.746 Y122.113 E.06407
G1 X112.28 Y122.113 E.79847
G1 X110.795 Y121.733 E.04806
G1 X109.459 Y120.875 E.04978
G1 X108.926 Y120.299 E.02461
G1 X108.498 Y119.696 E.02319
G1 X107.887 Y117.746 E.06407
G1 X107.887 Y92.28 E.79847
G1 X108.267 Y90.795 E.04806
G1 X108.376 Y90.626 E.00631
M204 S1000
G1 X108.685 Y90.825 F10800
M204 S800
G1 F1200
G1 X109.399 Y89.72 E.04125
G1 X109.948 Y89.211 E.02347
G1 X110.498 Y88.823 E.0211
G1 X112.283 Y88.264 E.05865
G1 X137.671 Y88.267 E.79602
G1 X138.617 Y88.45 E.03021
G1 X139.515 Y88.836 E.03065
G1 X140.553 Y89.671 E.04177
G1 X141.349 Y90.862 E.04492
G1 X141.736 Y92.304 E.04681
G1 X141.736 Y117.695 E.79612
G1 X141.376 Y119.08 E.04487
G1 X140.601 Y120.28 E.04479
G1 X140.052 Y120.789 E.02347
G1 X139.502 Y121.177 E.0211
G1 X137.718 Y121.736 E.05862
G1 X112.305 Y121.736 E.79681
G1 X110.92 Y121.376 E.04487
G1 X109.72 Y120.601 E.04479
G1 X109.211 Y120.052 E.02347
G1 X108.823 Y119.502 E.0211
G1 X108.264 Y117.718 E.05862
G1 X108.264 Y92.305 E.79681
G1 X108.624 Y90.92 E.04487
G1 X108.653 Y90.876 E.00165
M204 S1000
G1 X108.97 Y91.079 F10800
M204 S800
G1 F1200
G1 X109.673 Y89.98 E.04091
G1 X110.195 Y89.496 E.02232
G1 X110.69 Y89.148 E.01897
G1 X112.311 Y88.641 E.05325
G1 X137.652 Y88.644 E.79455
G1 X138.524 Y88.816 E.02787
G1 X139.34 Y89.171 E.0279
G1 X140.293 Y89.945 E.03849
G1 X141.017 Y91.043 E.04124
G1 X141.359 Y92.328 E.04169
G1 X141.359 Y117.672 E.79464
G1 X141.042 Y118.903 E.03986
G1 X140.327 Y120.02 E.04158
G1 X139.805 Y120.504 E.02232
G1 X139.31 Y120.852 E.01897
G1 X137.689 Y121.359 E.05325
G1 X112.328 Y121.359 E.79518
G1 X111.097 Y121.042 E.03986
G1 X109.98 Y120.327 E.04158
G1 X109.496 Y119.805 E.02232
G1 X109.148 Y119.31 E.01897
G1 X108.641 Y117.689 E.05325
G1 X108.641 Y92.328 E.79518
G1 X108.949 Y91.134 E.03866
M204 S1000
G1 X109.313 Y91.23 F10800
M204 S800
G1 F1200
G1 X109.946 Y90.24 E.03684
G1 X110.441 Y89.782 E.02114
G1 X110.882 Y89.474 E.01687
G1 X112.34 Y89.018 E.0479
G1 X137.633 Y89.021 E.79304
G1 X138.429 Y89.181 E.02546
G1 X139.164 Y89.505 E.02519
G1 X140.03 Y90.217 E.03515
G1 X140.685 Y91.223 E.03764
G1 X140.982 Y92.352 E.0366
M73 Q2 S29
G1 X140.982 Y117.647 E.79311
G1 X140.685 Y118.777 E.03663
M73 P2 R29
G1 X140.054 Y119.76 E.03662
G1 X139.559 Y120.218 E.02114
G1 X139.118 Y120.526 E.01687
G1 X137.66 Y120.982 E.0479
G1 X112.353 Y120.982 E.79348
G1 X111.223 Y120.685 E.03663
G1 X110.24 Y120.054 E.03662
G1 X109.782 Y119.559 E.02114
G1 X109.474 Y119.118 E.01687
G1 X109.018 Y117.66 E.0479
G1 X109.018 Y92.353 E.79348
G1 X109.298 Y91.288 E.03453
M204 S1000
G1 X109.649 Y91.399 F10800
M204 S800
G1 F1200
G1 X110.221 Y90.5 E.03341
G1 X110.687 Y90.068 E.01992
G1 X111.073 Y89.8 E.01473
G1 X112.368 Y89.395 E.04254
G1 X137.615 Y89.398 E.7916
G1 X138.296 Y89.535 E.02178
G1 X138.987 Y89.839 E.02367
G1 X139.767 Y90.488 E.03181
G1 X140.329 Y91.35 E.03226
G1 X140.605 Y92.378 E.03337
G1 X140.605 Y117.623 E.79154
G1 X140.351 Y118.601 E.03168
G1 X139.779 Y119.5 E.03341
G1 X139.313 Y119.932 E.01992
G1 X138.927 Y120.2 E.01473
G1 X137.632 Y120.605 E.04254
G1 X112.377 Y120.605 E.79185
G1 X111.399 Y120.351 E.03168
G1 X110.5 Y119.779 E.03341
G1 X110.068 Y119.313 E.01992
G1 X109.8 Y118.927 E.01473
G1 X109.395 Y117.632 E.04254
G1 X109.395 Y92.377 E.79185
G1 X109.634 Y91.457 E.0298
M204 S1000
G1 X109.998 Y91.555 F10800
M204 S800
G1 F1200
G1 X110.495 Y90.76 E.0294
G1 X110.933 Y90.354 E.01873
G1 X111.263 Y90.127 E.01256
G1 X112.397 Y89.772 E.03726
G1 X137.595 Y89.776 E.79007
G1 X138.199 Y89.9 E.01933
M73 P2 R28
G1 X138.808 Y90.172 E.02091
G1 X139.501 Y90.757 E.02844
G1 X139.995 Y91.528 E.02871
G1 X140.228 Y92.402 E.02836
G1 X140.228 Y117.598 E.79
G1 X139.994 Y118.475 E.02846
G1 X139.505 Y119.24 E.02847
G1 X139.067 Y119.646 E.01873
G1 X138.737 Y119.873 E.01256
G1 X137.603 Y120.228 E.03726
G1 X112.402 Y120.228 E.79016
G1 X111.525 Y119.994 E.02846
G1 X110.76 Y119.505 E.02847
G1 X110.354 Y119.067 E.01873
G1 X110.127 Y118.737 E.01256
G1 X109.772 Y117.603 E.03726
G1 X109.772 Y92.402 E.79016
G1 X109.983 Y91.612 E.02564
M204 S1000
G1 X110.345 Y91.712 F10800
M204 S800
G1 F1200
G1 X110.361 Y91.654 E.00189
G1 X110.768 Y91.021 E.0236
G1 X111.179 Y90.64 E.01757
G1 X111.452 Y90.454 E.01036
G1 X112.426 Y90.149 E.032
G1 X137.575 Y90.153 E.78853
G1 X138.099 Y90.264 E.01679
G1 X138.627 Y90.504 E.01819
G1 X139.234 Y91.025 E.02508
G1 X139.639 Y91.656 E.02351
G1 X139.851 Y92.428 E.0251
G1 X139.851 Y117.572 E.78837
M73 Q2 S28
G1 X139.639 Y118.346 E.02516
M73 P3 R28
M73 Q3 S28
G1 X139.232 Y118.979 E.0236
G1 X138.821 Y119.36 E.01757
G1 X138.548 Y119.546 E.01036
G1 X137.574 Y119.851 E.032
G1 X112.428 Y119.851 E.78844
G1 X111.654 Y119.639 E.02516
G1 X111.021 Y119.232 E.0236
G1 X110.64 Y118.821 E.01757
G1 X110.454 Y118.548 E.01036
G1 X110.149 Y117.574 E.032
G1 X110.149 Y92.428 E.78844
G1 X110.33 Y91.77 E.0214
M204 S1000
G1 X110.691 Y91.872 F10800
M204 S800
G1 F1200
G1 X110.716 Y91.785 E.00284
G1 X111.041 Y91.282 E.01878
G1 X111.424 Y90.927 E.01637
G1 X111.64 Y90.782 E.00816
G1 X112.455 Y90.526 E.02678
G1 X137.553 Y90.53 E.78693
G1 X137.997 Y90.627 E.01425
G1 X138.443 Y90.834 E.01542
G1 X138.966 Y91.291 E.02178
G1 X139.285 Y91.786 E.01846
G1 X139.474 Y92.455 E.0218
G1 X139.474 Y117.545 E.78668
G1 X139.284 Y118.215 E.02184
G1 X138.959 Y118.718 E.01878
G1 X138.576 Y119.073 E.01637
G1 X138.36 Y119.218 E.00816
G1 X137.545 Y119.474 E.02678
G1 X112.455 Y119.474 E.78668
G1 X111.785 Y119.284 E.02184
G1 X111.282 Y118.959 E.01878
G1 X110.927 Y118.576 E.01637
G1 X110.782 Y118.36 E.00816
G1 X110.526 Y117.545 E.02678
G1 X110.526 Y92.455 E.78668
G1 X110.675 Y91.93 E.01711
M204 S1000
G1 X111.035 Y92.036 F10800
M204 S800
G1 F1200
G1 X111.069 Y91.919 E.00382
G1 X111.314 Y91.543 E.01407
G1 X111.668 Y91.215 E.01513
G1 X111.825 Y91.112 E.00589
G1 X112.484 Y90.903 E.02168
G1 X137.531 Y90.907 E.78533
G1 X137.891 Y90.99 E.01158
G1 X138.256 Y91.162 E.01265
G1 X138.696 Y91.554 E.01848
G1 X138.931 Y91.92 E.01364
G1 X139.097 Y92.483 E.0184
G1 X139.097 Y117.517 E.78492
G1 X138.931 Y118.081 E.01843
G1 X138.686 Y118.457 E.01407
G1 X138.332 Y118.785 E.01513
G1 X138.175 Y118.888 E.00589
G1 X137.516 Y119.097 E.02168
G1 X112.483 Y119.097 E.78489
G1 X111.919 Y118.931 E.01843
G1 X111.543 Y118.686 E.01407
G1 X111.215 Y118.332 E.01513
G1 X111.112 Y118.175 E.00589
G1 X110.903 Y117.516 E.02168
G1 X110.903 Y92.483 E.78489
G1 X111.018 Y92.094 E.01272
M204 S1000
G1 X111.375 Y92.204 F10800
M204 S800
G1 F1200
G1 X111.421 Y92.057 E.00483
G1 X111.587 Y91.804 E.00949
G1 X111.912 Y91.504 E.01387
G1 X112.007 Y91.443 E.00354
G1 X112.513 Y91.28 E.01667
G1 X137.509 Y91.284 E.78373
G1 X137.747 Y91.339 E.00766
G1 X138.068 Y91.491 E.01114
G1 X138.423 Y91.815 E.01507
G1 X138.579 Y92.057 E.00903
G1 X138.72 Y92.512 E.01494
G1 X138.72 Y117.488 E.7831
G1 X138.579 Y117.943 E.01494
M73 Q4 S28
G1 X138.413 Y118.196 E.00949
M73 P4 R28
G1 X138.088 Y118.496 E.01387
G1 X137.993 Y118.557 E.00354
G1 X137.487 Y118.72 E.01667
G1 X112.512 Y118.72 E.78307
G1 X112.057 Y118.579 E.01494
G1 X111.804 Y118.413 E.00949
G1 X111.504 Y118.088 E.01387
G1 X111.443 Y117.993 E.00354
G1 X111.28 Y117.487 E.01667
G1 X111.28 Y92.512 E.78307
G1 X111.358 Y92.261 E.00824
M204 S1000
G1 X111.712 Y92.378 F10800
M204 S800
G1 F1200
G1 X111.77 Y92.201 E.00584
G1 X111.86 Y92.066 E.00509
G1 X112.152 Y91.795 E.01249
G1 X112.544 Y91.657 E.01303
G1 X137.487 Y91.661 E.78207
G1 X137.604 Y91.688 E.00376
G1 X137.878 Y91.818 E.00951
G1 X138.147 Y92.073 E.01162
G1 X138.23 Y92.2 E.00476
G1 X138.343 Y92.544 E.01135
G1 X138.343 Y117.456 E.7811
G1 X138.23 Y117.799 E.01132
G1 X138.14 Y117.934 E.00509
G1 X137.817 Y118.224 E.01361
G1 X137.456 Y118.343 E.01192
G1 X112.544 Y118.343 E.7811
G1 X112.201 Y118.23 E.01132
G1 X112.066 Y118.14 E.00509
G1 X111.776 Y117.817 E.01361
G1 X111.657 Y117.456 E.01192
G1 X111.657 Y92.544 E.7811
G1 X111.693 Y92.435 E.0036
M204 S1000
G1 X112.041 Y92.559 F10800
M204 S800
G1 F1200
G1 X112.132 Y92.328 E.00778
G1 X112.366 Y92.111 E.01001
G1 X112.579 Y92.034 E.0071
G1 X137.435 Y92.034 E.77934
G1 X137.685 Y92.144 E.00856
G1 X137.884 Y92.352 E.00903
G1 X137.966 Y92.579 E.00757
G1 X137.966 Y117.421 E.7789
G1 X137.868 Y117.672 E.00845
G1 X137.634 Y117.889 E.01001
G1 X137.421 Y117.966 E.0071
G1 X112.579 Y117.966 E.7789
G1 X112.328 Y117.868 E.00845
G1 X112.111 Y117.634 E.01001
G1 X112.034 Y117.421 E.0071
G1 X112.034 Y92.618 E.77768
M204 S1000
G1 X112.411 Y92.621 F10800
M204 S800
G1 F1200
G1 X112.44 Y92.552 E.00235
G1 X112.552 Y92.44 E.00497
G1 X112.621 Y92.411 E.00235
G1 X137.379 Y92.411 E.77627
G1 X137.448 Y92.44 E.00235
G1 X137.56 Y92.552 E.00497
G1 X137.589 Y92.621 E.00235
G1 X137.589 Y117.379 E.77627
G1 X137.56 Y117.448 E.00235
G1 X137.448 Y117.56 E.00497
G1 X137.379 Y117.589 E.00235
G1 X112.621 Y117.589 E.77627
G1 X112.552 Y117.56 E.00235
G1 X112.44 Y117.448 E.00497
G1 X112.411 Y117.379 E.00235
G1 X112.411 Y92.681 E.77439
M204 S1000
; printing object amy1.stl id:0 copy 0
;WIPE_START
G1 F8640
M73 P5 R28
M73 Q5 S28
G1 X112.44 Y92.552 E-.03053
G1 X112.552 Y92.44 E-.03657
G1 X112.621 Y92.411 E-.01728
G1 X115.72 Y92.411 E-.71562
;WIPE_END
G1 Z.6 F720
G1 X136.713 Y116.713 F10800
G1 Z.2 F720
G1 E.8 F2100
M204 S800
;TYPE:Perimeter
;WIDTH:0.419999
G1 F1200
G1 X113.287 Y116.713 E.7345
G1 X113.287 Y93.287 E.7345
G1 X136.713 Y93.287 E.7345
G1 X136.713 Y116.653 E.73262
M204 S1000
G1 X137.09 Y117.09 F10800
M204 S800
;TYPE:External perimeter
G1 F1200
G1 X112.91 Y117.09 E.75815
G1 X112.91 Y92.91 E.75815
G1 X137.09 Y92.91 E.75815
G1 X137.09 Y117.03 E.75626
M204 S1000
G1 X136.704 Y116.986 F10800
;WIPE_START
G1 F8640
G1 X133.625 Y117.039 E-.8
;WIPE_END
G1 Z.6 F720
G1 X135.774 Y93.457 F10800
G1 Z.2 F720
G1 E.8 F2100
M204 S800
;TYPE:Solid infill
;WIDTH:0.423181
G1 F1200
G1 X136.374 Y94.056 E.02681
G1 X136.374 Y94.594 E.01701
G1 X135.406 Y93.626 E.04328
G1 X134.868 Y93.626 E.01701
G1 X136.374 Y95.132 E.06734
G1 X136.374 Y95.669 E.01698
G1 X134.331 Y93.626 E.09135
G1 X133.793 Y93.626 E.01701
G1 X136.374 Y96.207 E.11541
G1 X136.374 Y96.745 E.01701
G1 X133.255 Y93.626 E.13947
G1 X132.717 Y93.626 E.01701
G1 X136.374 Y97.283 E.16353
G1 X136.374 Y97.82 E.01698
G1 X132.18 Y93.626 E.18754
G1 X131.642 Y93.626 E.01701
G1 X136.374 Y98.358 E.2116
G1 X136.374 Y98.896 E.01701
G1 X131.104 Y93.626 E.23565
G1 X130.566 Y93.626 E.01701
G1 X136.374 Y99.434 E.25971
G1 X136.374 Y99.972 E.01701
G1 X130.028 Y93.626 E.28377
G1 X129.491 Y93.626 E.01698
G1 X136.374 Y100.509 E.30778
G1 X136.374 Y101.047 E.01701
G1 X128.953 Y93.626 E.33184
G1 X128.415 Y93.626 E.01701
G1 X136.374 Y101.585 E.35589
G1 X136.374 Y102.123 E.01701
G1 X127.877 Y93.626 E.37995
G1 X127.34 Y93.626 E.01698
G1 X136.374 Y102.66 E.40396
G1 X136.374 Y103.198 E.01701
M73 P5 R27
G1 X126.802 Y93.626 E.42802
G1 X126.264 Y93.626 E.01701
M73 P6 R27
M73 Q6 S28
G1 X136.374 Y103.736 E.45208
G1 X136.374 Y104.274 E.01701
G1 X125.726 Y93.626 E.47613
G1 X125.189 Y93.626 E.01698
G1 X136.374 Y104.812 E.50017
G1 X136.374 Y105.349 E.01698
G1 X124.651 Y93.626 E.5242
G1 X124.113 Y93.626 E.01701
G1 X136.374 Y105.887 E.54826
G1 X136.374 Y106.425 E.01701
G1 X123.575 Y93.626 E.57232
G1 X123.037 Y93.626 E.01701
G1 X136.374 Y106.963 E.59637
G1 X136.374 Y107.5 E.01698
M73 Q6 S27
G1 X122.5 Y93.626 E.62039
G1 X121.962 Y93.626 E.01701
G1 X136.374 Y108.038 E.64444
G1 X136.374 Y108.576 E.01701
G1 X121.424 Y93.626 E.6685
G1 X120.886 Y93.626 E.01701
G1 X136.374 Y109.114 E.69256
G1 X136.374 Y109.651 E.01698
G1 X120.349 Y93.626 E.71657
G1 X119.811 Y93.626 E.01701
G1 X136.374 Y110.189 E.74063
G1 X136.374 Y110.727 E.01701
G1 X119.273 Y93.626 E.76468
G1 X118.735 Y93.626 E.01701
G1 X136.374 Y111.265 E.78874
G1 X136.374 Y111.803 E.01701
G1 X118.197 Y93.626 E.8128
G1 X117.66 Y93.626 E.01698
G1 X136.374 Y112.34 E.83681
G1 X136.374 Y112.878 E.01701
M73 P7 R27
M73 Q7 S27
G1 X117.122 Y93.626 E.86087
G1 X116.584 Y93.626 E.01701
G1 X136.374 Y113.416 E.88493
G1 X136.374 Y113.954 E.01701
G1 X116.046 Y93.626 E.90898
G1 X115.509 Y93.626 E.01698
G1 X136.374 Y114.491 E.93299
G1 X136.374 Y115.029 E.01701
G1 X114.971 Y93.626 E.95705
G1 X114.433 Y93.626 E.01701
G1 X136.374 Y115.567 E.98111
G1 X136.374 Y116.105 E.01701
G1 X113.895 Y93.626 E1.00517
G1 X113.626 Y93.626 E.00851
G1 X113.626 Y93.895 E.00851
G1 X136.105 Y116.374 E1.00517
G1 X135.567 Y116.374 E.01701
G1 X113.626 Y94.433 E.98111
G1 X113.626 Y94.971 E.01701
G1 X135.029 Y116.374 E.95705
G1 X134.491 Y116.374 E.01701
G1 X113.626 Y95.509 E.93299
G1 X113.626 Y96.046 E.01698
G1 X133.954 Y116.374 E.90898
G1 X133.416 Y116.374 E.01701
M73 P8 R27
M73 Q8 S27
G1 X113.626 Y96.584 E.88493
G1 X113.626 Y97.122 E.01701
G1 X132.878 Y116.374 E.86087
G1 X132.34 Y116.374 E.01701
G1 X113.626 Y97.66 E.83681
G1 X113.626 Y98.198 E.01701
G1 X131.802 Y116.374 E.81275
G1 X131.265 Y116.374 E.01698
G1 X113.626 Y98.735 E.78874
G1 X113.626 Y99.273 E.01701
G1 X130.727 Y116.374 E.76468
G1 X130.189 Y116.374 E.01701
G1 X113.626 Y99.811 E.74063
G1 X113.626 Y100.349 E.01701
G1 X129.651 Y116.374 E.71657
G1 X129.114 Y116.374 E.01698
G1 X113.626 Y100.886 E.69256
G1 X113.626 Y101.424 E.01701
G1 X128.576 Y116.374 E.6685
G1 X128.038 Y116.374 E.01701
G1 X113.626 Y101.962 E.64444
G1 X113.626 Y102.5 E.01701
G1 X127.5 Y116.374 E.62039
G1 X126.963 Y116.374 E.01698
G1 X113.626 Y103.037 E.59637
G1 X113.626 Y103.575 E.01701
G1 X126.425 Y116.374 E.57232
G1 X125.887 Y116.374 E.01701
G1 X113.626 Y104.113 E.54826
G1 X113.626 Y104.651 E.01701
