; generated by PrusaSlicer 2.6.1+MacOS-arm64 on 2023-10-11 at 20:23:03 UTC


;
;
; 

; external perimeters extrusion width = 0.45mm
; perimeters extrusion width = 0.45mm
; infill extrusion width = 0.45mm
; solid infill extrusion width = 0.45mm
; top infill extrusion width = 0.40mm
; first layer extrusion width = 0.42mm

M73 P0 R15
M73 Q0 S15
M201 X1000 Y1000 Z200 E5000 ; sets maximum accelerations, mm/sec^2
M203 X200 Y200 Z12 E120 ; sets maximum feedrates, mm / sec
M204 S1250 T1250 ; sets acceleration (S) and retract acceleration (R), mm/sec^2
M205 X8.00 Y8.00 Z0.40 E4.50 ; sets the jerk limits, mm/sec
M205 S0 T0 ; sets the minimum extruding and travel feed rate, mm/sec
;TYPE:Custom
M862.3 P "MK3S" ; printer model check
M862.1 P0.4 ; nozzle diameter check
M115 U3.13.0 ; tell printer latest fw version
G90 ; use absolute coordinates
M83 ; extruder relative mode
M104 S215 ; set extruder temp
M140 S60 ; set bed temp
M190 S60 ; wait for bed temp
M109 S215 ; wait for extruder temp
G28 W ; home all without mesh bed level
G80 ; mesh bed leveling

G1 Z0.2 F720
G1 Y-3 F1000 ; go outside print area
G92 E0
G1 X60 E9 F1000 ; intro line
G1 X100 E12.5 F1000 ; intro line

G92 E0
M221 S95

; Don't change E values below. Excessive value can damage the printer.
M907 E430 ; set extruder motor current
G21 ; set units to millimeters
G90 ; use absolute coordinates
M83 ; use relative distances for extrusion
M900 K0.05 ; Filament gcode LA 1.5
M900 K30 ; Filament gcode LA 1.0
M107
;LAYER_CHANGE
;Z:0.2
;HEIGHT:0.2
;BEFORE_LAYER_CHANGE
G92 E0.0
;0.2


M73 P0 R14
M73 Q0 S14
G1 E-.8 F2100
G1 Z.4 F720
;AFTER_LAYER_CHANGE
;0.2
G1 X105.294 Y88.282 F10800
G1 Z.2 F720
G1 E.8 F2100
M204 S800
;TYPE:Skirt/Brim
;WIDTH:0.42
G1 F1200
G1 X108.282 Y85.294 E.13249
G1 X109.963 Y84.598 E.05705
G1 X140.037 Y84.598 E.94295
G1 X141.718 Y85.294 E.05705
M73 Q1 S14
G1 X144.706 Y88.282 E.13249
G1 X145.402 Y89.963 E.05705
M73 P1 R14
G1 X145.402 Y120.037 E.94295
G1 X144.706 Y121.718 E.05705
G1 X141.718 Y124.706 E.13249
G1 X140.037 Y125.402 E.05705
G1 X109.963 Y125.402 E.94295
G1 X108.282 Y124.706 E.05705
G1 X105.294 Y121.718 E.13249
G1 X104.598 Y120.037 E.05705
G1 X104.598 Y89.963 E.94295
G1 X105.271 Y88.337 E.05518
M204 S1000
;WIPE_START
G1 F8640
G1 X107.708 Y85.874 E-.8
;WIPE_END
G1 Z.6 F720
G1 X107.784 Y89.95 F10800
G1 Z.2 F720
G1 E.8 F2100
M204 S800
G1 F1200
G1 X108.5 Y88.834 E.04157
G1 X109.076 Y88.301 E.02461
G1 X109.679 Y87.873 E.02319
G1 X111.629 Y87.261 E.06408
G1 X138.314 Y87.265 E.83669
G1 X139.335 Y87.459 E.03259
G1 X140.313 Y87.875 E.03332
G1 X141.437 Y88.771 E.04507
G1 X142.33 Y90.109 E.05044
G1 X142.738 Y91.654 E.0501
G1 X142.738 Y118.345 E.83688
G1 X142.358 Y119.83 E.04806
M73 P2 R14
M73 Q2 S14
G1 X141.5 Y121.166 E.04978
G1 X140.924 Y121.699 E.02461
G1 X140.321 Y122.127 E.02319
G1 X138.371 Y122.738 E.06407
G1 X111.655 Y122.738 E.83766
G1 X110.17 Y122.358 E.04806
G1 X108.834 Y121.5 E.04978
G1 X108.301 Y120.924 E.02461
G1 X107.873 Y120.321 E.02319
G1 X107.262 Y118.371 E.06407
G1 X107.262 Y91.655 E.83766
G1 X107.642 Y90.17 E.04806
G1 X107.751 Y90.001 E.00631
M204 S1000
G1 X108.06 Y90.2 F10800
M204 S800
G1 F1200
G1 X108.774 Y89.095 E.04125
G1 X109.323 Y88.586 E.02347
G1 X109.873 Y88.198 E.0211
G1 X111.658 Y87.639 E.05865
G1 X138.296 Y87.642 E.83522
G1 X139.242 Y87.825 E.03021
G1 X140.14 Y88.211 E.03065
G1 X141.178 Y89.046 E.04177
G1 X141.974 Y90.237 E.04492
G1 X142.361 Y91.679 E.04681
G1 X142.361 Y118.32 E.83531
G1 X142.001 Y119.705 E.04487
G1 X141.226 Y120.905 E.04479
G1 X140.677 Y121.414 E.02347
G1 X140.127 Y121.802 E.0211
G1 X138.343 Y122.361 E.05862
G1 X111.68 Y122.361 E.836
G1 X110.295 Y122.001 E.04487
G1 X109.095 Y121.226 E.04479
G1 X108.586 Y120.677 E.02347
M73 Q3 S14
G1 X108.198 Y120.127 E.0211
G1 X107.639 Y118.343 E.05862
G1 X107.639 Y91.68 E.836
G1 X107.999 Y90.295 E.04487
M73 P3 R14
G1 X108.028 Y90.251 E.00165
M204 S1000
G1 X108.345 Y90.454 F10800
M204 S800
G1 F1200
G1 X109.048 Y89.355 E.04091
G1 X109.57 Y88.871 E.02232
G1 X110.065 Y88.523 E.01897
G1 X111.686 Y88.016 E.05325
G1 X138.277 Y88.019 E.83374
G1 X139.149 Y88.191 E.02787
G1 X139.965 Y88.546 E.0279
G1 X140.918 Y89.32 E.03849
G1 X141.642 Y90.418 E.04124
G1 X141.984 Y91.703 E.04169
G1 X141.984 Y118.297 E.83384
G1 X141.667 Y119.528 E.03986
G1 X140.952 Y120.645 E.04158
G1 X140.43 Y121.129 E.02232
G1 X139.935 Y121.477 E.01897
G1 X138.314 Y121.984 E.05325
G1 X111.703 Y121.984 E.83437
G1 X110.472 Y121.667 E.03986
G1 X109.355 Y120.952 E.04158
G1 X108.871 Y120.43 E.02232
G1 X108.523 Y119.935 E.01897
G1 X108.016 Y118.314 E.05325
G1 X108.016 Y91.703 E.83437
G1 X108.324 Y90.509 E.03866
M204 S1000
G1 X108.688 Y90.605 F10800
M204 S800
G1 F1200
G1 X109.321 Y89.615 E.03684
G1 X109.816 Y89.157 E.02114
G1 X110.257 Y88.849 E.01687
G1 X111.715 Y88.393 E.0479
G1 X138.258 Y88.396 E.83224
G1 X139.054 Y88.556 E.02546
M73 P4 R14
M73 Q4 S14
G1 X139.789 Y88.88 E.02519
G1 X140.655 Y89.592 E.03515
G1 X141.31 Y90.598 E.03764
G1 X141.607 Y91.727 E.0366
G1 X141.607 Y118.272 E.8323
G1 X141.31 Y119.402 E.03663
G1 X140.679 Y120.385 E.03662
G1 X140.184 Y120.843 E.02114
G1 X139.743 Y121.151 E.01687
G1 X138.285 Y121.607 E.0479
G1 X111.728 Y121.607 E.83268
G1 X110.598 Y121.31 E.03663
G1 X109.615 Y120.679 E.03662
G1 X109.157 Y120.184 E.02114
G1 X108.849 Y119.743 E.01687
G1 X108.393 Y118.285 E.0479
G1 X108.393 Y91.728 E.83268
G1 X108.673 Y90.663 E.03453
M204 S1000
G1 X109.024 Y90.774 F10800
M204 S800
G1 F1200
G1 X109.596 Y89.875 E.03341
G1 X110.062 Y89.443 E.01992
G1 X110.448 Y89.175 E.01473
G1 X111.743 Y88.77 E.04254
G1 X138.24 Y88.773 E.83079
G1 X138.921 Y88.91 E.02178
G1 X139.612 Y89.214 E.02367
G1 X140.392 Y89.863 E.03181
G1 X140.954 Y90.725 E.03226
G1 X141.23 Y91.753 E.03337
G1 X141.23 Y118.248 E.83073
G1 X140.976 Y119.226 E.03168
G1 X140.404 Y120.125 E.03341
G1 X139.938 Y120.557 E.01992
G1 X139.552 Y120.825 E.01473
G1 X138.257 Y121.23 E.04254
G1 X111.752 Y121.23 E.83105
G1 X110.774 Y120.976 E.03168
M73 P5 R14
M73 Q5 S14
G1 X109.875 Y120.404 E.03341
G1 X109.443 Y119.938 E.01992
G1 X109.175 Y119.552 E.01473
G1 X108.77 Y118.257 E.04254
G1 X108.77 Y91.752 E.83105
G1 X109.009 Y90.832 E.0298
M204 S1000
G1 X109.373 Y90.93 F10800
M204 S800
G1 F1200
G1 X109.87 Y90.135 E.0294
G1 X110.308 Y89.729 E.01873
G1 X110.638 Y89.502 E.01256
G1 X111.772 Y89.147 E.03726
G1 X138.22 Y89.151 E.82926
G1 X138.824 Y89.275 E.01933
G1 X139.433 Y89.547 E.02091
G1 X140.126 Y90.132 E.02844
G1 X140.62 Y90.903 E.02871
G1 X140.853 Y91.777 E.02836
G1 X140.853 Y118.223 E.8292
G1 X140.619 Y119.1 E.02846
G1 X140.13 Y119.865 E.02847
G1 X139.692 Y120.271 E.01873
G1 X139.362 Y120.498 E.01256
G1 X138.228 Y120.853 E.03726
G1 X111.777 Y120.853 E.82935
G1 X110.9 Y120.619 E.02846
G1 X110.135 Y120.13 E.02847
G1 X109.729 Y119.692 E.01873
G1 X109.502 Y119.362 E.01256
G1 X109.147 Y118.228 E.03726
G1 X109.147 Y91.777 E.82935
G1 X109.358 Y90.987 E.02564
M204 S1000
G1 X109.72 Y91.087 F10800
M204 S800
G1 F1200
G1 X109.736 Y91.029 E.00189
G1 X110.143 Y90.396 E.0236
G1 X110.554 Y90.015 E.01757
G1 X110.827 Y89.829 E.01036
G1 X111.801 Y89.524 E.032
G1 X138.2 Y89.528 E.82772
G1 X138.724 Y89.639 E.01679
M73 P6 R14
M73 Q6 S14
G1 X139.252 Y89.879 E.01819
G1 X139.859 Y90.4 E.02508
G1 X140.264 Y91.031 E.02351
G1 X140.476 Y91.803 E.0251
G1 X140.476 Y118.197 E.82757
G1 X140.264 Y118.971 E.02516
G1 X139.857 Y119.604 E.0236
G1 X139.446 Y119.985 E.01757
G1 X139.173 Y120.171 E.01036
G1 X138.199 Y120.476 E.032
G1 X111.803 Y120.476 E.82763
G1 X111.029 Y120.264 E.02516
G1 X110.396 Y119.857 E.0236
G1 X110.015 Y119.446 E.01757
G1 X109.829 Y119.173 E.01036
G1 X109.524 Y118.199 E.032
G1 X109.524 Y91.803 E.82763
G1 X109.705 Y91.145 E.0214
M204 S1000
G1 X110.066 Y91.247 F10800
M204 S800
G1 F1200
G1 X110.091 Y91.16 E.00284
G1 X110.416 Y90.657 E.01878
G1 X110.799 Y90.302 E.01637
G1 X111.015 Y90.157 E.00816
G1 X111.83 Y89.901 E.02678
G1 X138.178 Y89.905 E.82612
G1 X138.622 Y90.002 E.01425
M73 P6 R13
G1 X139.068 Y90.209 E.01542
G1 X139.591 Y90.666 E.02178
G1 X139.91 Y91.161 E.01846
G1 X140.099 Y91.83 E.0218
G1 X140.099 Y118.17 E.82587
G1 X139.909 Y118.84 E.02184
G1 X139.584 Y119.343 E.01878
G1 X139.201 Y119.698 E.01637
G1 X138.985 Y119.843 E.00816
G1 X138.17 Y120.099 E.02678
G1 X111.83 Y120.099 E.82587
G1 X111.16 Y119.909 E.02184
M73 P7 R13
M73 Q7 S13
G1 X110.657 Y119.584 E.01878
G1 X110.302 Y119.201 E.01637
G1 X110.157 Y118.985 E.00816
G1 X109.901 Y118.17 E.02678
G1 X109.901 Y91.83 E.82587
G1 X110.05 Y91.305 E.01711
M204 S1000
G1 X110.41 Y91.411 F10800
M204 S800
G1 F1200
G1 X110.444 Y91.294 E.00382
G1 X110.689 Y90.918 E.01407
G1 X111.043 Y90.59 E.01513
G1 X111.2 Y90.487 E.00589
G1 X111.859 Y90.278 E.02168
G1 X138.156 Y90.282 E.82452
G1 X138.516 Y90.365 E.01158
G1 X138.881 Y90.537 E.01265
G1 X139.321 Y90.929 E.01848
G1 X139.556 Y91.295 E.01364
G1 X139.722 Y91.858 E.0184
G1 X139.722 Y118.142 E.82412
G1 X139.556 Y118.706 E.01843
G1 X139.311 Y119.082 E.01407
G1 X138.957 Y119.41 E.01513
G1 X138.8 Y119.513 E.00589
G1 X138.141 Y119.722 E.02168
G1 X111.858 Y119.722 E.82409
G1 X111.294 Y119.556 E.01843
G1 X110.918 Y119.311 E.01407
G1 X110.59 Y118.957 E.01513
G1 X110.487 Y118.8 E.00589
G1 X110.278 Y118.141 E.02168
G1 X110.278 Y91.858 E.82409
G1 X110.393 Y91.469 E.01272
M204 S1000
G1 X110.75 Y91.579 F10800
M204 S800
G1 F1200
G1 X110.796 Y91.432 E.00483
G1 X110.962 Y91.179 E.00949
G1 X111.287 Y90.879 E.01387
G1 X111.382 Y90.818 E.00354
G1 X111.888 Y90.655 E.01667
G1 X138.134 Y90.659 E.82292
G1 X138.372 Y90.714 E.00766
M73 P8 R13
M73 Q8 S13
G1 X138.693 Y90.866 E.01114
G1 X139.048 Y91.19 E.01507
G1 X139.204 Y91.432 E.00903
G1 X139.345 Y91.887 E.01494
G1 X139.345 Y118.113 E.8223
G1 X139.204 Y118.568 E.01494
G1 X139.038 Y118.821 E.00949
G1 X138.713 Y119.121 E.01387
G1 X138.618 Y119.182 E.00354
G1 X138.112 Y119.345 E.01667
G1 X111.887 Y119.345 E.82227
G1 X111.432 Y119.204 E.01494
G1 X111.179 Y119.038 E.00949
G1 X110.879 Y118.713 E.01387
G1 X110.818 Y118.618 E.00354
G1 X110.655 Y118.112 E.01667
G1 X110.655 Y91.887 E.82227
G1 X110.733 Y91.636 E.00824
M204 S1000
G1 X111.087 Y91.753 F10800
M204 S800
G1 F1200
G1 X111.145 Y91.576 E.00584
G1 X111.235 Y91.441 E.00509
G1 X111.527 Y91.17 E.01249
G1 X111.919 Y91.032 E.01303
G1 X138.112 Y91.036 E.82126
G1 X138.229 Y91.063 E.00376
G1 X138.503 Y91.193 E.00951
G1 X138.772 Y91.448 E.01162
G1 X138.855 Y91.575 E.00476
G1 X138.968 Y91.919 E.01135
G1 X138.968 Y118.081 E.82029
G1 X138.855 Y118.424 E.01132
G1 X138.765 Y118.559 E.00509
G1 X138.442 Y118.849 E.01361
G1 X138.081 Y118.968 E.01192
G1 X111.919 Y118.968 E.82029
G1 X111.576 Y118.855 E.01132
M73 P9 R13
M73 Q9 S13
G1 X111.441 Y118.765 E.00509
G1 X111.151 Y118.442 E.01361
G1 X111.032 Y118.081 E.01192
G1 X111.032 Y91.919 E.82029
G1 X111.068 Y91.81 E.0036
M204 S1000
G1 X111.416 Y91.934 F10800
M204 S800
G1 F1200
G1 X111.507 Y91.703 E.00778
G1 X111.741 Y91.486 E.01001
G1 X111.954 Y91.409 E.0071
G1 X138.06 Y91.409 E.81854
G1 X138.31 Y91.519 E.00856
G1 X138.509 Y91.727 E.00903
G1 X138.591 Y91.954 E.00757
G1 X138.591 Y118.046 E.8181
G1 X138.493 Y118.297 E.00845
G1 X138.259 Y118.514 E.01001
G1 X138.046 Y118.591 E.0071
G1 X111.954 Y118.591 E.8181
G1 X111.703 Y118.493 E.00845
G1 X111.486 Y118.259 E.01001
G1 X111.409 Y118.046 E.0071
G1 X111.409 Y91.993 E.81687
M204 S1000
G1 X111.786 Y91.996 F10800
M204 S800
G1 F1200
G1 X111.815 Y91.927 E.00235
G1 X111.927 Y91.815 E.00497
G1 X111.996 Y91.786 E.00235
G1 X138.004 Y91.786 E.81546
G1 X138.073 Y91.815 E.00235
G1 X138.185 Y91.927 E.00497
G1 X138.214 Y91.996 E.00235
G1 X138.214 Y118.004 E.81546
G1 X138.185 Y118.073 E.00235
M73 P10 R13
M73 Q10 S13
G1 X138.073 Y118.185 E.00497
G1 X138.004 Y118.214 E.00235
G1 X111.996 Y118.214 E.81546
G1 X111.927 Y118.185 E.00235
G1 X111.815 Y118.073 E.00497
G1 X111.786 Y118.004 E.00235
G1 X111.786 Y92.056 E.81358
M204 S1000
; printing object Body4.stl id:0 copy 0
;WIPE_START
G1 F8640
G1 X111.815 Y91.927 E-.03053
G1 X111.927 Y91.815 E-.03657
G1 X111.996 Y91.786 E-.01728
G1 X115.095 Y91.786 E-.71562
;WIPE_END
G1 Z.6 F720
G1 X112.662 Y92.662 F10800
G1 Z.2 F720
G1 E.8 F2100
M204 S800
;TYPE:Perimeter
;WIDTH:0.419999
G1 F1200
G1 X137.338 Y92.662 E.7737
G1 X137.338 Y117.338 E.7737
G1 X112.662 Y117.338 E.7737
G1 X112.662 Y92.722 E.77182
M204 S1000
G1 X112.285 Y92.285 F10800
M204 S800
;TYPE:External perimeter
G1 F1200
G1 X137.715 Y92.285 E.79734
G1 X137.715 Y117.715 E.79734
M73 P11 R13
M73 Q11 S13
G1 X112.285 Y117.715 E.79734
G1 X112.285 Y92.345 E.79546
M204 S1000
G1 X112.671 Y92.389 F10800
;WIPE_START
G1 F8640
G1 X115.75 Y92.337 E-.8
;WIPE_END
G1 Z.6 F720
G1 X136.402 Y92.832 F10800
G1 Z.2 F720
G1 E.8 F2100
M204 S800
;TYPE:Solid infill
;WIDTH:0.421714
G1 F1200
G1 X136.999 Y93.428 E.02657
G1 X136.999 Y93.964 E.01688
G1 X136.036 Y93.001 E.0429
G1 X135.501 Y93.001 E.01685
G1 X136.999 Y94.499 E.06673
G1 X136.999 Y95.035 E.01688
G1 X134.965 Y93.001 E.0906
G1 X134.429 Y93.001 E.01688
G1 X136.999 Y95.571 E.11448
G1 X136.999 Y96.106 E.01685
G1 X133.894 Y93.001 E.13831
G1 X133.358 Y93.001 E.01688
G1 X136.999 Y96.642 E.16218
G1 X136.999 Y97.178 E.01688
G1 X132.822 Y93.001 E.18606
G1 X132.286 Y93.001 E.01688
G1 X136.999 Y97.714 E.20993
G1 X136.999 Y98.249 E.01685
G1 X131.751 Y93.001 E.23376
G1 X131.215 Y93.001 E.01688
G1 X136.999 Y98.785 E.25764
G1 X136.999 Y99.321 E.01688
G1 X130.679 Y93.001 E.28151
G1 X130.144 Y93.001 E.01685
G1 X136.999 Y99.856 E.30534
G1 X136.999 Y100.392 E.01688
M73 P12 R13
M73 Q12 S13
G1 X129.608 Y93.001 E.32922
G1 X129.072 Y93.001 E.01688
G1 X136.999 Y100.928 E.35309
G1 X136.999 Y101.463 E.01685
G1 X128.537 Y93.001 E.37693
G1 X128.001 Y93.001 E.01688
G1 X136.999 Y101.999 E.4008
G1 X136.999 Y102.535 E.01688
G1 X127.465 Y93.001 E.42468
G1 X126.929 Y93.001 E.01688
G1 X136.999 Y103.071 E.44855
G1 X136.999 Y103.606 E.01685
G1 X126.394 Y93.001 E.47238
G1 X125.858 Y93.001 E.01688
G1 X136.999 Y104.142 E.49626
G1 X136.999 Y104.678 E.01688
G1 X125.322 Y93.001 E.52013
G1 X124.787 Y93.001 E.01685
G1 X136.999 Y105.213 E.54396
G1 X136.999 Y105.749 E.01688
G1 X124.251 Y93.001 E.56784
G1 X123.715 Y93.001 E.01688
G1 X136.999 Y106.285 E.59171
G1 X136.999 Y106.82 E.01685
M73 P13 R13
M73 Q13 S13
G1 X123.18 Y93.001 E.61554
G1 X122.644 Y93.001 E.01688
G1 X136.999 Y107.356 E.63942
G1 X136.999 Y107.892 E.01688
G1 X122.108 Y93.001 E.66329
G1 X121.573 Y93.001 E.01685
M73 P13 R12
G1 X136.999 Y108.427 E.68712
G1 X136.999 Y108.963 E.01688
G1 X121.037 Y93.001 E.711
G1 X120.501 Y93.001 E.01688
G1 X136.999 Y109.499 E.73487
G1 X136.999 Y110.035 E.01688
M73 Q13 S12
G1 X119.965 Y93.001 E.75875
G1 X119.43 Y93.001 E.01685
G1 X136.999 Y110.57 E.78258
G1 X136.999 Y111.106 E.01688
M73 P14 R12
M73 Q14 S12
G1 X118.894 Y93.001 E.80646
G1 X118.358 Y93.001 E.01688
G1 X136.999 Y111.642 E.83033
G1 X136.999 Y112.177 E.01685
G1 X117.823 Y93.001 E.85416
G1 X117.287 Y93.001 E.01688
G1 X136.999 Y112.713 E.87804
G1 X136.999 Y113.249 E.01688
G1 X116.751 Y93.001 E.90191
G1 X116.216 Y93.001 E.01685
G1 X136.999 Y113.784 E.92574
G1 X136.999 Y114.32 E.01688
M73 P15 R12
G1 X115.68 Y93.001 E.94962
G1 X115.144 Y93.001 E.01688
M73 Q15 S12
G1 X136.999 Y114.856 E.97349
G1 X136.999 Y115.392 E.01688
G1 X114.608 Y93.001 E.99737
G1 X114.073 Y93.001 E.01685
G1 X136.999 Y115.927 E1.0212
G1 X136.999 Y116.463 E.01688
G1 X113.537 Y93.001 E1.04507
G1 X113.001 Y93.001 E.01688
G1 X136.999 Y116.999 E1.06895
G1 X136.463 Y116.999 E.01688
M73 P16 R12
M73 Q16 S12
G1 X113.001 Y93.537 E1.04507
G1 X113.001 Y94.073 E.01688
G1 X135.927 Y116.999 E1.0212
G1 X135.391 Y116.999 E.01688
G1 X113.001 Y94.609 E.99732
G1 X113.001 Y95.144 E.01685
G1 X134.856 Y116.999 E.97349
G1 X134.32 Y116.999 E.01688
G1 X113.001 Y95.68 E.94962
G1 X113.001 Y96.216 E.01688
M73 P17 R12
G1 X133.784 Y116.999 E.92574
G1 X133.249 Y116.999 E.01685
M73 Q17 S12
G1 X113.001 Y96.751 E.90191
G1 X113.001 Y97.287 E.01688
G1 X132.713 Y116.999 E.87804
G1 X132.177 Y116.999 E.01688
G1 X113.001 Y97.823 E.85416
G1 X113.001 Y98.358 E.01685
G1 X131.642 Y116.999 E.83033
G1 X131.106 Y116.999 E.01688
G1 X113.001 Y98.894 E.80646
G1 X113.001 Y99.43 E.01688
G1 X130.57 Y116.999 E.78258
G1 X130.034 Y116.999 E.01688
M73 P18 R12
M73 Q18 S12
G1 X113.001 Y99.966 E.75871
